icons/asterisk/asterisk-circle.svg

<svg width="14" height="14" viewBox="0 0 14 14" fill="none"
    xmlns="http://www.w3.org/2000/svg">
    <circle cx="7" cy="7" r="4.5" stroke="green"/>
    <path d="M7.00006 4C7.27614 4.00005 7.50003 4.22391 7.50006 4.5V6.13379L8.9151 5.31738C8.97499 5.28282 9.039 5.26186 9.10358 5.25391C9.29677 5.23006 9.49419 5.32089 9.59772 5.5C9.73568 5.73905 9.65401 6.04449 9.4151 6.18262L7.99908 7L9.4151 7.81738C9.5045 7.86907 9.57219 7.94394 9.61432 8.03027C9.62851 8.05937 9.6392 8.08992 9.64752 8.12109C9.68055 8.24462 9.6667 8.38053 9.59772 8.5C9.56318 8.55978 9.5187 8.61027 9.46686 8.64941C9.41493 8.68859 9.35593 8.71689 9.29401 8.7334C9.17052 8.76636 9.03451 8.75154 8.9151 8.68262L7.50006 7.86523V9.5C7.50001 9.70716 7.37399 9.88508 7.1944 9.96094C7.13468 9.98617 7.06896 9.99998 7.00006 10C6.89668 10 6.80049 9.96881 6.72076 9.91504C6.66726 9.87898 6.62111 9.83278 6.58502 9.7793C6.54917 9.72612 6.52311 9.66561 6.50983 9.60059C6.50319 9.5681 6.50006 9.53444 6.50006 9.5V7.86523L5.08502 8.68262C5.0252 8.71714 4.96104 8.73811 4.89655 8.74609C4.7354 8.766 4.57117 8.70635 4.461 8.58203C4.43898 8.55719 4.41867 8.52987 4.40143 8.5C4.38416 8.47006 4.37091 8.4388 4.36041 8.40723C4.28717 8.18676 4.37604 7.93816 4.58502 7.81738L6.00006 7L4.58502 6.18262C4.34609 6.04453 4.26356 5.73905 4.40143 5.5C4.41867 5.47013 4.43898 5.44281 4.461 5.41797C4.50502 5.3683 4.55765 5.3289 4.6153 5.30078C4.70192 5.25856 4.7998 5.24193 4.89655 5.25391C4.96106 5.26188 5.02518 5.28284 5.08502 5.31738L6.50006 6.13379V4.5C6.50007 4.46556 6.50319 4.4319 6.50983 4.39941C6.52311 4.33438 6.54917 4.27388 6.58502 4.2207C6.62111 4.16722 6.66727 4.12102 6.72076 4.08496C6.80049 4.0312 6.89667 4 7.00006 4Z" fill="red"/>
</svg>

<svg xmlns="http://www.w3.org/2000/svg" width="14" height="14" fill="none" viewBox="0 0 14 14"><circle cx="7" cy="7" r="4.5" stroke="green"/><path fill="red" d="M7 4a.5.5 0 0 1 .5.5v1.634l1.415-.817a.5.5 0 0 1 .683.183.5.5 0 0 1-.183.683L8 7l1.416.817a.498.498 0 0 1 .052.832.5.5 0 0 1-.552.034L7.5 7.865V9.5a.5.5 0 0 1-1 0V7.865l-1.415.818a.5.5 0 1 1-.5-.866L6 7l-1.415-.817a.5.5 0 1 1 .5-.866l1.415.817V4.5a.5.5 0 0 1 .085-.28A.5.5 0 0 1 7 4"/></svg>
